icons/1_Primary/CybelAngel.svg

<svg width="1024" height="1024" fill="none" xmlns="http://www.w3.org/2000/svg"><g clip-path="url(#a)"><path d="M512 1024c282.77 0 512-229.23 512-512S794.77 0 512 0 0 229.23 0 512s229.23 512 512 512Z" fill="#9ABEFF"/><path d="M219.69 304.87a3.203 3.203 0 0 0-2.51 1.24c-2.47 2.89 1.24 4.94 2.89 7a314.907 314.907 0 0 0 88.21 66.77 442.892 442.892 0 0 0 148.39 46.17 978.633 978.633 0 0 1 101.4 22.26 390.18 390.18 0 0 1 100 44.93A163.017 163.017 0 0 1 708.31 538a281.321 281.321 0 0 1 29.47 61.83 412.237 412.237 0 0 1 12.78 44.52c.82 3.09 1 8.24 5.15 7.63 4.15-.61 2.68-4.95 2.68-8.86v-12a290.404 290.404 0 0 0-13.19-117.48 286.68 286.68 0 0 0-77.29-118.09 238.453 238.453 0 0 0-199.29-68.63l-9.28 1.65c-1.86.21-3.71.41-3.91 2.68a3.779 3.779 0 0 0 1.108 2.802 3.794 3.794 0 0 0 2.802 1.108h4.33a415.705 415.705 0 0 1 141.38 56.68A105.529 105.529 0 0 1 640.5 426a11.99 11.99 0 0 1-7-2.47 356.574 356.574 0 0 0-122.42-43.03c-49.26-8.24-98.51-14.22-147.35-24.52a363.997 363.997 0 0 1-138.29-48.64c-1.7-.85-3.79-2.48-5.73-2.48l-.02.01Zm65.36 111.25a1.767 1.767 0 0 0-1.51 1.28c-1.24 2.89 1.65 4.53 3.5 6.18a391.556 391.556 0 0 0 84.29 58.74A566.954 566.954 0 0 0 503 525.6a413.24 413.24 0 0 1 141.38 58.12 181.58 181.58 0 0 1 82.44 129.84c1 8.24 2.89 16.49 2.89 24.73.21 1.65 0 3.71 2.68 3.71s2.68-1.85 2.68-3.71c1.796-8.83 2.9-17.787 3.3-26.79a226.714 226.714 0 0 0-14-80.38A240.096 240.096 0 0 0 582 491.59a389.933 389.933 0 0 0-99.75-24.11 687.899 687.899 0 0 1-192.94-50.08c-1.27 0-2.94-1.36-4.26-1.28Zm70 83.51a20.606 20.606 0 0 0 8.45 10.1 757.825 757.825 0 0 0 188 114 323.392 323.392 0 0 1 82.44 44.72 171.471 171.471 0 0 1 59.56 100.79c.41 2.47.62 6.8 3.71 6.8s3.09-4.53 3.09-7a132.722 132.722 0 0 0-17.11-90.06 243.616 243.616 0 0 0-138.91-103A1277.674 1277.674 0 0 1 401 522.72c-15-7.21-29.68-14.84-46-23.08l.05-.01Z" fill="#fff"/></g><defs><clipPath id="a"><path fill="#fff" d="M0 0h1024v1024H0z"/></clipPath></defs></svg>

<svg width="1024" height="1024" viewBox="0 0 1024 1024" fill="none" xmlns="http://www.w3.org/2000/svg">
<g clip-path="url(#clip0_2_1953)">
<path d="M512 1024C794.77 1024 1024 794.77 1024 512C1024 229.23 794.77 0 512 0C229.23 0 0 229.23 0 512C0 794.77 229.23 1024 512 1024Z" fill="#9ABEFF"/>
<path d="M219.69 304.87C219.205 304.873 218.727 304.987 218.292 305.201C217.857 305.416 217.477 305.727 217.18 306.11C214.71 309 218.42 311.05 220.07 313.11C245.303 340.398 275.167 363.003 308.28 379.88C354.636 403.896 404.872 419.526 456.67 426.05C490.84 431.671 524.688 439.101 558.07 448.31C593.352 458.506 627.018 473.632 658.07 493.24C677.747 504.504 694.859 519.749 708.31 538C720.615 557.333 730.512 578.097 737.78 599.83C742.871 614.419 747.138 629.283 750.56 644.35C751.38 647.44 751.56 652.59 755.71 651.98C759.86 651.37 758.39 647.03 758.39 643.12V631.12C762.095 591.47 757.605 551.482 745.2 513.64C729.68 468.451 703.112 427.858 667.91 395.55C642.172 369.603 610.815 349.92 576.26 338.02C541.705 326.12 504.876 322.322 468.62 326.92L459.34 328.57C457.48 328.78 455.63 328.98 455.43 331.25C455.413 331.768 455.503 332.284 455.694 332.766C455.884 333.248 456.172 333.686 456.538 334.052C456.905 334.419 457.342 334.706 457.824 334.897C458.306 335.087 458.822 335.177 459.34 335.16H463.67C513.885 345.185 561.817 364.4 605.05 391.84C619.395 400.273 631.542 411.978 640.5 426C637.964 425.938 635.514 425.073 633.5 423.53C595.669 401.82 554.175 387.235 511.08 380.5C461.82 372.26 412.57 366.28 363.73 355.98C314.812 349.313 267.761 332.764 225.44 307.34C223.74 306.49 221.65 304.86 219.71 304.86L219.69 304.87ZM285.05 416.12C284.699 416.158 284.367 416.3 284.098 416.528C283.829 416.756 283.634 417.06 283.54 417.4C282.3 420.29 285.19 421.93 287.04 423.58C312.435 446.777 340.775 466.527 371.33 482.32C413.285 502.077 457.505 516.613 503 525.6C553.331 536.013 601.278 555.723 644.38 583.72C666.786 598.011 685.782 617.045 700.027 639.48C714.271 661.915 723.418 687.204 726.82 713.56C727.82 721.8 729.71 730.05 729.71 738.29C729.92 739.94 729.71 742 732.39 742C735.07 742 735.07 740.15 735.07 738.29C736.866 729.46 737.97 720.503 738.37 711.5C738.603 684.081 733.859 656.847 724.37 631.12C712.017 599.023 692.913 569.955 668.35 545.882C643.787 521.809 614.339 503.294 582 491.59C549.957 479.194 516.417 471.087 482.25 467.48C415.846 460.243 350.851 443.372 289.31 417.4C288.04 417.4 286.37 416.04 285.05 416.12ZM355.05 499.63C356.686 503.831 359.655 507.378 363.5 509.73C420.292 556.667 483.625 595.071 551.5 623.73C581.007 634.551 608.779 649.617 633.94 668.45C665.003 694.019 686.086 729.697 693.5 769.24C693.91 771.71 694.12 776.04 697.21 776.04C700.3 776.04 700.3 771.51 700.3 769.04C705.474 737.941 699.409 706.015 683.19 678.98C651.041 628.815 601.621 592.171 544.28 575.98C495.5 561.102 447.654 543.317 401 522.72C386 515.51 371.32 507.88 355 499.64L355.05 499.63Z" fill="white"/>
</g>
<defs>
<clipPath id="clip0_2_1953">
<rect width="1024" height="1024" fill="white"/>
</clipPath>
</defs>
</svg>
